X: 41690
T: Vagaland
R: waltz
M: 3/4
K: Gmajor
d2|d4 BA|G4 Bd|g4 ce|d4 BA|G3 E D2|D2 E2 G2|A2 G2 A2|B4 d2|d4 BA|
G4 Bd|e2 d2 B2|d4 BA|G3 E D2|D2 E2 G2|A2 B2 A2|G4:|d2|B4 AG|
G2 B2 d2|e2 d2 B2|d4 d2|e2 d2 e2|g4 e2|e2 d2 B2|A4 d2|B4 AG|G2 B2 d2|
e2 d2 B2|d4 BA|G3 E D2|D2 E2 G2|A2 B2 A2|G4 d2|B4 AG|G2 B2 d2|
e2 d2 B2|d4 d2|b3 a g2|g4 e2|e2 d2 B2|A4||

